src/assets/icons/weeks,fancy,16.svg

<svg width="48" height="48" viewBox="0 0 48 48" fill="none" xmlns="http://www.w3.org/2000/svg">
<rect opacity="0.2" x="4" y="6" width="40" height="40" rx="4" fill="black"/>
<path d="M18.4181 20.6364H14.3713L9.33008 23.8281V27.6463L13.9934 24.723H14.1127V41H18.4181V20.6364ZM31.0733 41.2784C35.6074 41.2983 38.6998 38.3253 38.6898 34.179C38.6998 30.3608 36.035 27.6065 32.4256 27.6065C30.1884 27.6065 28.2097 28.6804 27.2949 30.4801H27.1557C27.1756 26.5128 28.5676 24.0469 31.2225 24.0469C32.7836 24.0469 33.9071 24.902 34.2353 26.3239H38.481C38.0733 22.973 35.2892 20.358 31.2225 20.358C26.1912 20.358 22.9597 24.4347 22.9398 31.2756C22.9299 38.733 26.8873 41.2585 31.0733 41.2784ZM31.0534 37.8977C29.0648 37.8977 27.5932 36.2969 27.5932 34.3082C27.6032 32.3295 29.1046 30.7188 31.0833 30.7188C33.0719 30.7188 34.5236 32.2798 34.5137 34.2983C34.5236 36.3366 33.0421 37.8977 31.0534 37.8977Z" fill="black"/>
<g opacity="0.4">
<path d="M10 4C10 2.89543 10.8954 2 12 2C13.1046 2 14 2.89543 14 4V8C14 9.10457 13.1046 10 12 10C10.8954 10 10 9.10457 10 8V4Z" fill="black"/>
<path d="M34 4C34 2.89543 34.8954 2 36 2C37.1046 2 38 2.89543 38 4V8C38 9.10457 37.1046 10 36 10C34.8954 10 34 9.10457 34 8V4Z" fill="black"/>
</g>
<path fill-rule="evenodd" clip-rule="evenodd" d="M10 6.00869C7.52043 6.04456 6.11466 6.22849 5.17157 7.17157C4 8.34315 4 10.2288 4 14V16H44V14C44 10.2288 44 8.34315 42.8284 7.17157C41.8853 6.22849 40.4796 6.04456 38 6.00869V8C38 9.10457 37.1046 10 36 10C34.8954 10 34 9.10457 34 8V6H14V8C14 9.10457 13.1046 10 12 10C10.8954 10 10 9.10457 10 8V6.00869Z" fill="black"/>
</svg>

<svg xmlns="http://www.w3.org/2000/svg" width="48" height="48" fill="none" viewBox="0 0 48 48">
  <rect width="40" height="40" x="4" y="6" fill="#000" opacity=".2" rx="4"/>
  <path fill="#000" d="M18.418 20.636h-4.047l-5.04 3.192v3.818l4.662-2.923h.12V41h4.305V20.636zm12.655 20.642c4.534.02 7.627-2.953 7.617-7.099.01-3.818-2.655-6.573-6.264-6.573-2.238 0-4.216 1.074-5.131 2.874h-.14c.02-3.967 1.413-6.433 4.067-6.433 1.562 0 2.685.855 3.013 2.277h4.246c-.408-3.351-3.192-5.966-7.259-5.966-5.03 0-8.262 4.077-8.282 10.918-.01 7.457 3.947 9.982 8.133 10.002zm-.02-3.38c-1.988 0-3.46-1.601-3.46-3.59.01-1.978 1.512-3.59 3.49-3.59 1.989 0 3.44 1.562 3.43 3.58.01 2.039-1.47 3.6-3.46 3.6z"/>
  <g opacity=".4">
    <path fill="#000" d="M10 4a2 2 0 114 0v4a2 2 0 11-4 0V4zM34 4a2 2 0 114 0v4a2 2 0 11-4 0V4z"/>
  </g>
  <path fill="#000" fill-rule="evenodd" d="M10 6.009c-2.48.036-3.885.22-4.828 1.163C4 8.343 4 10.229 4 14v2h40v-2c0-3.771 0-5.657-1.172-6.828-.943-.944-2.348-1.127-4.828-1.163V8a2 2 0 11-4 0V6H14v2a2 2 0 11-4 0V6.009z" clip-rule="evenodd"/>
</svg>
